_src/static/img/icon/star.svg

<svg width="19" height="19" viewBox="0 0 19 19" fill="none" xmlns="http://www.w3.org/2000/svg">
<g clip-path="url(#clip0)">
<path d="M18.9505 7.28774C18.8261 6.90301 18.4849 6.62975 18.0811 6.59337L12.5972 6.09542L10.4287 1.01986C10.2688 0.647887 9.90468 0.407104 9.5001 0.407104C9.09551 0.407104 8.73136 0.647887 8.57147 1.02073L6.40298 6.09542L0.918188 6.59337C0.515193 6.63062 0.174822 6.90301 0.0497196 7.28774C-0.0753827 7.67247 0.0401521 8.09445 0.345008 8.36046L4.4902 11.9958L3.26788 17.3802C3.17844 17.776 3.3321 18.1853 3.66058 18.4227C3.83715 18.5503 4.04372 18.6152 4.25203 18.6152C4.43164 18.6152 4.6098 18.5668 4.76969 18.4711L9.5001 15.6439L14.2288 18.4711C14.5748 18.6793 15.011 18.6603 15.3387 18.4227C15.6674 18.1845 15.8209 17.7752 15.7314 17.3802L14.5091 11.9958L18.6543 8.36118C18.9592 8.09445 19.0756 7.67319 18.9505 7.28774Z" fill="#FFC107"/>
</g>
<defs>
<clipPath id="clip0">
<rect width="19" height="19" fill="white"/>
</clipPath>
</defs>
</svg>

<svg width="19" height="19" fill="none" xmlns="http://www.w3.org/2000/svg"><g clip-path="url(#clip0)"><path d="M18.95 7.288a1.008 1.008 0 00-.869-.695l-5.484-.498L10.43 1.02a1.01 1.01 0 00-1.858 0L6.403 6.096l-5.485.498A1.01 1.01 0 00.345 8.36l4.145 3.636-1.222 5.384a1.01 1.01 0 001.502 1.091l4.73-2.827 4.729 2.827a1.01 1.01 0 001.503-1.09l-1.223-5.385 4.145-3.635a1.01 1.01 0 00.297-1.073z" fill="#FFC107"/></g><defs><clipPath id="clip0"><path fill="#fff" d="M0 0h19v19H0z"/></clipPath></defs></svg>
